Adwaita++/apps/scalable/darktable.svg

<svg viewBox="0 0 128 128" xmlns="http://www.w3.org/2000/svg">
  <g transform="matrix(.99975006 0 0 .99975006 .015996 -171.92602)">
    <circle cx="64" cy="236" r="20.015"/>
    <path d="m48.179 178.158-1.025 53.329 59.062-38.042a60.015 60.015 0 0 0 -12.208-9.42 60.015 60.015 0 0 0 -45.83-5.867z" fill="#ff7800"/>
    <path d="m5.996 220.78 45.673 27.552-3.415-70.17a60.015 60.015 0 0 0 -14.262 5.863 60.015 60.015 0 0 0 -27.996 36.756z" fill="#ed333b"/>
    <path d="m21.818 278.623 46.696-25.778-62.474-32.127a60.015 60.015 0 0 0 -2.055 15.282 60.015 60.015 0 0 0 17.833 42.623z" fill="#a347ba"/>
    <path d="m79.821 293.842 1.025-53.329-59.062 38.042a60.015 60.015 0 0 0 12.208 9.42 60.015 60.015 0 0 0 45.83 5.867z" fill="#3584e4"/>
    <path d="m122.004 251.22-45.674-27.553 3.415 70.17a60.015 60.015 0 0 0 14.262-5.863 60.015 60.015 0 0 0 27.996-36.756z" fill="#33d17a"/>
    <path d="m106.182 193.377-42.921 27.72 58.7 30.185a60.013 60.013 0 0 0 2.054-15.282 60.015 60.015 0 0 0 -17.833-42.623z" fill="#f6d32d"/>
    <path d="m4.049 234.994a60 60 0 0 0 -.049 1.006 60 60 0 0 0 60 60 60 60 0 0 0 60-60 60 60 0 0 0 -.035-1.006 60 60 0 0 1 -59.965 59.006 60 60 0 0 1 -59.951-59.006z" opacity=".2"/>
  </g>
  <path d="m76.534867 55.941011 45.432643 23.276181-45.368659-21.95551zm-13.259685-6.819295 42.874278-27.706073-41.699572 28.312921z" opacity=".2"/>
  <path d="m50.740315 57.196697-2.558361-50.9842534 3.669084 50.2674334z" opacity=".098"/>
  <path d="m51.465134 72.088974-45.4326421-23.276181 45.3686571 21.955512z" opacity=".03"/>
  <path d="m64.724819 78.90827-42.874281 27.70607 41.699574-28.312919z" opacity=".06"/>
  <path d="m77.259685 70.833288 2.558361 50.984262-3.669083-50.267441z" opacity=".2"/>
</svg>

<svg xmlns="http://www.w3.org/2000/svg" version="1.0" viewBox="0 0 128 128">
 <g transform="matrix(0.99975006,0,0,0.99975006,0.01599601,-171.92602)">
  <circle cx="64" cy="236" r="20.015"/>
  <path style="fill:#ff7800" d="m 48.179,178.158 -1.025,53.329 59.062,-38.042 a 60.015,60.015 0 0 0 -12.208,-9.42 60.015,60.015 0 0 0 -45.83,-5.867 z"/>
  <path style="fill:#ed333b" d="m 5.996,220.78 45.673,27.552 -3.415,-70.17 a 60.015,60.015 0 0 0 -14.262,5.863 60.015,60.015 0 0 0 -27.996,36.756 z"/>
  <path style="fill:#a347ba" d="M 21.818,278.623 68.514,252.845 6.04,220.718 A 60.015,60.015 0 0 0 3.985,236 60.015,60.015 0 0 0 21.818,278.623 Z"/>
  <path style="fill:#3584e4" d="m 79.821,293.842 1.025,-53.329 -59.062,38.042 a 60.015,60.015 0 0 0 12.208,9.42 60.015,60.015 0 0 0 45.83,5.867 z"/>
  <path style="fill:#33d17a" d="m 122.004,251.22 -45.674,-27.553 3.415,70.17 a 60.015,60.015 0 0 0 14.262,-5.863 60.015,60.015 0 0 0 27.996,-36.756 z"/>
  <path style="fill:#f6d32d" d="m 106.182,193.377 -42.921,27.72 58.7,30.185 A 60.013,60.013 0 0 0 124.015,236 60.015,60.015 0 0 0 106.182,193.377 Z"/>
  <path d="M 4.049,234.994 A 60,60 0 0 0 4,236 60,60 0 0 0 64,296 60,60 0 0 0 124,236 60,60 0 0 0 123.965,234.994 60,60 0 0 1 64,294 60,60 0 0 1 4.049,234.994 Z" style="opacity:0.2"/>
 </g>
 <path style="opacity:0.2" d="M 76.534867,55.941011 121.96751,79.217192 76.598851,57.261682 Z M 63.275182,49.121716 106.14946,21.415643 64.449888,49.728564 Z"/>
 <path style="opacity:0.09800002" d="M 50.740315,57.196697 48.181954,6.2124436 51.851038,56.479877 Z"/>
 <path style="opacity:0.02999998" d="M 51.465134,72.088974 6.0324919,48.812793 51.401149,70.768305 Z"/>
 <path style="opacity:0.06000001" d="M 64.724819,78.90827 21.850538,106.61434 63.550112,78.301421 Z"/>
 <path style="opacity:0.2" d="M 77.259685,70.833288 79.818046,121.81755 76.148963,71.550109 Z"/>
</svg>
